src/topics/icons/kickstarter.svg

<svg height="256" preserveAspectRatio="xMidYMid" viewBox="0 0 256 256" width="256" xmlns="http://www.w3.org/2000/svg"><path d="m240.67075 256h-225.3415005c-8.46634449 0-15.3292495-6.864479-15.3292495-15.329341v-225.3413177c0-8.46639519 6.86290501-15.3293413 15.3292495-15.3293413h225.3415005c8.464812 0 15.32925 6.86294611 15.32925 15.3293413v225.3413177c0 8.464862-6.864438 15.329341-15.32925 15.329341" fill="#161d15"/><path d="m116.890891 105.512348 25.600956-37.091173c4.84024-6.988059 11.087883-10.4820885 18.749048-10.4820885 6.249173 0 11.655434 2.2166588 16.227962 6.6515062 4.567939 4.4348474 6.851908 9.7432023 6.851908 15.9250644 0 4.5694686-1.207001 8.6019825-3.627121 12.096012l-23.08293 33.5634879 28.223009 35.781677c2.822453 3.56134 4.232915 7.728475 4.232915 12.498346 0 6.318013-2.215129 11.741102-6.651506 16.276915-4.434847 4.537343-9.813572 6.802955-16.126996 6.802955-6.922278 0-12.195448-2.248784-15.825628-6.752472l-34.571617-43.138414v23.78816c0 6.787657-1.174875 12.060827-3.527685 15.824099-4.300226 6.851908-10.549399 10.278627-18.7459884 10.278627-7.4592329 0-13.2402914-2.519556-17.3370563-7.558669-3.8305822-4.636779-5.7443436-10.786516-5.7443436-18.443091v-88.1951791c0-7.2573012 1.9458869-13.2357019 5.8453095-17.9397916 4.0982946-4.971802 9.7416724-7.4592328 16.9316631-7.4592328 6.8549677 0 12.5656557 2.4874308 17.1351247 7.4592328 2.553211 2.7536135 4.165605 5.542412 4.837181 8.3648658.403863 1.7485445.605795 5.0054573.605795 9.7768575z" fill="#2cdf72"/></svg>

<?xml version="1.0" encoding="UTF-8" standalone="no"?>
<svg width="256px" height="256px" viewBox="0 0 256 256" version="1.1" xmlns="http://www.w3.org/2000/svg" xmlns:xlink="http://www.w3.org/1999/xlink" preserveAspectRatio="xMidYMid">
	<g>
		<path d="M240.67075,256 L15.3292495,256 C6.86290501,256 0,249.135521 0,240.670659 L0,15.3293413 C0,6.86294611 6.86290501,0 15.3292495,0 L240.67075,0 C249.135562,0 256,6.86294611 256,15.3293413 L256,240.670659 C256,249.135521 249.135562,256 240.67075,256" fill="#161D15"></path>
		<path d="M116.890891,105.512348 L142.491847,68.421175 C147.332087,61.433116 153.57973,57.9390865 161.240895,57.9390865 C167.490068,57.9390865 172.896329,60.1557453 177.468857,64.5905927 C182.036796,69.0254401 184.320765,74.333795 184.320765,80.5156571 C184.320765,85.0851257 183.113764,89.1176396 180.693644,92.6116691 L157.610714,126.175157 L185.833723,161.956834 C188.656176,165.518174 190.066638,169.685309 190.066638,174.45518 C190.066638,180.773193 187.851509,186.196282 183.415132,190.732095 C178.980285,195.269438 173.60156,197.53505 167.288136,197.53505 C160.365858,197.53505 155.092688,195.286266 151.462508,190.782578 L116.890891,147.644164 L116.890891,171.432324 C116.890891,178.219981 115.716016,183.493151 113.363206,187.256423 C109.06298,194.108331 102.813807,197.53505 94.6172176,197.53505 C87.1579847,197.53505 81.3769262,195.015494 77.2801613,189.976381 C73.4495791,185.339602 71.5358177,179.189865 71.5358177,171.53329 L71.5358177,83.3381109 C71.5358177,76.0808097 73.4817046,70.102409 77.3811272,65.3983193 C81.4794218,60.4265173 87.1227996,57.9390865 94.3127903,57.9390865 C101.167758,57.9390865 106.878446,60.4265173 111.447915,65.3983193 C114.001126,68.1519328 115.61352,70.9407313 116.285096,73.7631851 C116.688959,75.5117296 116.890891,78.7686424 116.890891,83.5400426 L116.890891,105.512348" fill="#2CDF72"></path>
	</g>
</svg>
